X:1
T:Title
%%score ( 1 2 ) { 3 | 4 }
L:1/8
Q:1/4=92
M:6/8
K:G
V:1 treble nm="Grand Piano, Soprano"
V:2 treble 
V:3 bass nm="Choir Pad, Washed White as Snow"
V:4 bass 
V:1
 D/D/ D2 [DB][DB][CA] | [DB] [B,G]2 [B,G] [B,G]2 | D/D/ D2 [Dc]cB | [Dc] [FA]2 [FA] [FA]2 | %4
w: By~John~Robson~Sweney * * * * *||||
 D/D/ D2 [GB][GB][Fc] | [=Fd] [Ed]2 [Ec] [Ec]2 | [EA] [DG]2 [GB] [GB]2 | [FA] G2- G2- G/ z/ | %8
w: ||||
 [GB]/[Ac]/ [Bd]2 [Bd][Bd][Ac] | [GB] [FA]2 [GB] [Fc]2 | [FA]/[GB]/ [Ac]2 [ce][ce][Bd] | %11
w: |||
 [Ac] [GB]2 [Fc] [GB]2- | [GB] [GB]2- [GB] [DG]2- | [DG] [EA]2 [^GB] [Ac]2 | %14
w: |||
 [Ge] [Gd]2 [GB] [GB]2 | [FA] [DG]2- [DG]3- | [DG]3 z3 |] %17
w: |||
V:2
 x6 | x6 | z3 z D2 | x6 | x6 | x6 | x6 | x6 | x6 | x6 | x6 | x6 | x6 | x6 | x6 | x6 | x6 |] %17
V:3
 B,/B,/ B,2 G, G,2 | G, D,2 D, D,2 | B,/B,/ A,2 A,A,^G, | A,[K:treble] D2 D D2 | C/C/ B,2 D D2 | %5
 G, G,2 G, G,2 | C B,2[K:treble] D D2 | C B,2- B,2- B,/ z/ | D/D/ D2 D D2 | D D2 D A,2 | %10
 D/D/ D2 DD[K:bass]E, | D D2 D D2- | D[K:treble] D2- D B,2- | B, C2 E E2 | C[K:bass] B,2 D D2 | %15
 C B,2- B,3- | B,3 z3 |] %17
V:4
 G,/G,/ G,2 G,, G,,2 | G,, G,,2 G,, G,,2 | G,/G,/ F,2 F, D,2 | D, D,2 D, D,2 | %4
 F,/F,/ G,2 G,G,,A,, | B,, C,2 C, C,2 | C, D,2 D, D,2 | D, G,2- G,2- G,/ z/ | G,/G,/ G,2 G, G,2 | %9
 G, D,2 D, D,2 | D,/D,/ D,2 D, .D,2 | F, G,2 A, B,2- | B, G,2- G, G,2- | G, C,2 B,, A,,2 | %14
 C, D,2 D, D,2 | D, [G,,G,]2- [G,,G,]3- | [G,,G,]3 z3 |] %17

